src/images/amenities/tv.svg

<svg width="20" height="21" viewBox="0 0 20 21" fill="none" xmlns="http://www.w3.org/2000/svg">
<g clip-path="url(#clip0_643:8)">
<path d="M19.6869 15.4285V3.10706H0.292938V15.4285H7.9697V16.6606H4.97415L3.76203 17.8928H16.2178L15.0057 16.6606H12.0101V15.4285H19.6869ZM1.10102 3.92848H18.8788V14.6071H1.10102V3.92848ZM11.202 16.6606H8.77779V15.4285H11.202V16.6606Z" fill="#39412F"/>
</g>
<defs>
<clipPath id="clip0_643:8">
<rect width="19.3939" height="19.7143" fill="white" transform="translate(0.292938 0.642822)"/>
</clipPath>
</defs>
</svg>

<svg xmlns="http://www.w3.org/2000/svg" viewBox="0 0 20 21"><g clip-path="url(#a)"><path d="M19.687 15.428V3.108H.293v12.32H7.97v1.233H4.974l-1.212 1.232h12.456l-1.212-1.232H12.01v-1.233h7.677ZM1.1 3.928h17.778v10.68H1.1V3.927Zm10.101 12.733H8.778v-1.233h2.424v1.233Z" fill="#39412F"/></g><defs><clipPath id="a"><path fill="#fff" transform="translate(.293 .643)" d="M0 0h19.394v19.714H0z"/></clipPath></defs></svg>
